.icons/Zafiro-icons-Mac/panel/16/keyboard-battery-full.svg

<svg xmlns="http://www.w3.org/2000/svg" width="16" height="16" version="1.1">
 <defs>
  <style id="current-color-scheme" type="text/css">
   .ColorScheme-Text { color:#dfdfdf; } .ColorScheme-Highlight { color:#4285f4; }
  </style>
 </defs>
 <path style="fill:currentColor" class="ColorScheme-Text" d="M 2.5,0.99965 C 2.223,0.99965 2,1.2227 2,1.4996 V 1.9996 L 0,1.9977 V 1.9974 14.5 C 0,14.777 0.223,15 0.5,15 H 6.5 C 6.777,15 7,14.777 7,14.5 V 1.9984 L 6.5,2.0003 H 5 V 1.5004 C 5,1.2234 4.777,1.0004 4.5,1.0004 Z"/>
 <path style="fill:currentColor" class="ColorScheme-Text" d="M 10,2 C 9.446,2 9,2.446 9,3 V 14 C 9,14.554 9.446,15 10,15 H 15 C 15.554,15 16,14.554 16,14 V 3 C 16,2.446 15.554,2 15,2 Z M 10,4 H 11 V 5 H 10 Z M 12,4 H 13 V 5 H 12 Z M 14,5 H 15 V 12 H 14 Z M 10,6 H 11 V 7 H 10 Z M 12,6 H 13 V 7 H 12 Z M 10,8 H 11 V 9 H 10 Z M 12,8 H 13 V 9 H 12 Z M 10,10 H 11 V 11 H 10 Z M 12,10 H 13 V 11 H 12 Z M 10,12 H 11 V 13 H 10 Z M 12,12 H 13 V 13 H 12 Z"/>
</svg>

<svg width="16" height="16" version="1.1" xmlns="http://www.w3.org/2000/svg">
 <g fill="#dedede">
  <path d="m10 0.998c-0.554 0-1 0.446-1 1v13c0 0.554 0.446 1 1 1h5c0.554 0 1-0.446 1-1v-13c0-0.554-0.446-1-1-1zm0 3h1v1h-1zm2 0h1v1h-1zm2 1h1v7h-1zm-4 1h1v1h-1zm2 0h1v1h-1zm-2 2h1v1h-1zm2 0h1v1h-1zm-2 2h1v1h-1zm2 0h1v1h-1zm-2 2h1v1h-1zm2 0h1v1h-1z" fill="#dedede" fill-rule="evenodd"/>
 </g>
 <g transform="rotate(-90,6,10)" fill="#dedede" fill-rule="evenodd">
  <path d="m1 4c-0.554 0-1 0.446-1 1v6c0 0.554 0.446 1 1 1h12c0.554 0 1-0.446 1-1v-6c0-0.554-0.446-1-1-1zm0 1h12v6h-12z" style="paint-order:normal"/>
  <path d="m15 6.5879v2.8242a1.5 1.5 0 0 0 1-1.4121 1.5 1.5 0 0 0-1-1.4121z" style="paint-order:normal"/>
  <rect x="2" y="6" width="10" height="4" ry="0" style="paint-order:normal"/>
 </g>
</svg>
